X: 40121
T: Tie The Bonnet
R: reel
M: 4/4
K: Adorian
|:A2 (Ag) fdec|A2 (Ac) BGGB|A2 (Ag) fdef|gfge dBGB:|
a2 (af) gfed|cAeA cAce|a2 (af) gfef|gfge dBGB|
a2 (af) gfed|cAeA cAce|afge fdef|gfge dBGB||
A2 (Ag) fde^c|A2 (Ac) BGGB|A2 (Ag) fdef|{a/}gfgd BG G:|
eaaf gfed|cAeA cdef|eaaf gfef|gfgd BGGf|
eaaf gfed|^cAeA cdef|afge fdef|gfge BG G||
|:A2 (Ag) fdec|A2 (Ac) BGGB|A2 (Ag) fdef|gfge dBGB:|
A2 (af) gfed|cAeA cAce|a2 (af) gfef|gfge dBGB|
a2 (af) gfed|cAeA cAce|afge fdef|gfge dBGB||

